dist/img/sprites/icon_3.svg

<svg width="47" height="46" viewBox="0 0 47 46" fill="none" xmlns="http://www.w3.org/2000/svg">
<path d="M8.66516 38.739C8.66416 38.679 8.60414 38.68 8.60314 38.621L4.75814 27.97C4.63414 27.673 4.50915 27.439 4.26615 27.205L1.11015 24.226C0.928149 24.052 0.80215 23.755 0.85815 23.456L1.95115 18.49C2.00915 18.369 2.06616 18.249 2.12416 18.129L3.93115 16.067C4.16415 15.826 4.33616 15.464 4.38916 15.106L5.68016 8.10703C5.68016 8.04703 5.73815 7.92704 5.73715 7.86904L8.83415 1.73003C8.94715 1.43003 9.24215 1.30404 9.54115 1.29804C9.60015 1.29704 9.72215 1.29503 9.78215 1.35303L14.1531 2.51904L16.2631 3.72803C24.5911 9.04703 27.1241 10.608 27.9671 11.067L28.7062 11.39L29.2801 11.161C29.8741 11.091 30.8252 11.012 32.3722 10.803C32.5492 10.8 32.7282 10.857 32.9102 10.912L34.6582 12.01C34.9002 12.184 35.1412 12.239 35.4402 12.292L38.8462 12.821C39.0852 12.878 39.2661 12.992 39.3901 13.167C41.9641 16.872 43.9271 19.695 44.4201 20.639L43.7541 23.035C43.7001 23.333 43.7041 23.632 43.7711 23.928L46.1461 32.582C46.2691 32.819 46.2131 32.998 46.1591 33.237L43.1011 38.363L42.8041 39.074L42.2272 39.392L30.9282 43.547L29.2702 44.175C29.2102 44.176 29.0911 44.178 29.0321 44.179L24.9011 43.248C24.7831 43.25 24.7211 43.191 24.6031 43.194L22.4102 43.771L17.0802 45.425C16.8422 45.49 16.5431 45.436 16.3021 45.262L9.69715 39.672L8.66516 38.739Z" stroke="white" stroke-miterlimit="10"/>
<path d="M8.14355 38.401L11.6015 37.914L20.7845 13.173L14.1945 2.37" stroke="white" stroke-miterlimit="10"/>
<path d="M28.2383 11.201L36.9893 29.649H39.6893L40.8253 24.653L43.9583 20.493" stroke="white" stroke-miterlimit="10"/>
<path d="M24.0236 42.8301L11.6016 37.9141" stroke="white" stroke-miterlimit="10"/>
<path d="M25.6452 23.4921L22.2402 29.1641L23.7002 42.6151" stroke="white" stroke-miterlimit="10"/>
<path d="M28.6702 43.9641L36.9892 29.3791L25.6452 23.4921L20.7842 13.1731" stroke="white" stroke-miterlimit="10"/>
<path d="M39.6895 29.379L42.2275 38.834" stroke="white" stroke-miterlimit="10"/>
</svg>

<svg width="47" height="46" viewBox="0 0 47 46" fill="none" xmlns="http://www.w3.org/2000/svg"><path d="M8.665 38.739c0-.06-.06-.059-.062-.118L4.758 27.97c-.124-.297-.249-.531-.492-.765L1.11 24.226a.874.874 0 01-.252-.77l1.093-4.966.173-.361 1.807-2.062c.233-.241.405-.603.458-.961L5.68 8.107c0-.06.058-.18.057-.238L8.834 1.73c.113-.3.408-.426.707-.432.06-.001.181-.003.241.055l4.371 1.166 2.11 1.209c8.328 5.319 10.861 6.88 11.704 7.339l.74.323.573-.229c.594-.07 1.545-.149 3.092-.358.177-.003.356.054.538.109l1.748 1.098c.242.174.483.229.782.282l3.406.529c.24.057.42.171.544.346 2.574 3.705 4.537 6.528 5.03 7.472l-.666 2.396a2.22 2.22 0 00.017.893l2.375 8.654c.123.237.067.416.013.655l-3.058 5.126-.297.711-.577.318-11.299 4.155-1.658.628-.238.004-4.13-.931c-.119.002-.18-.057-.299-.054l-2.193.577-5.33 1.654a.945.945 0 01-.778-.163l-6.605-5.59-1.032-.933z" stroke="#fff" stroke-miterlimit="10"/><path d="M8.144 38.401l3.457-.487 9.184-24.741-6.59-10.803m14.043 8.831l8.751 18.448h2.7l1.136-4.996 3.133-4.16M24.024 42.83l-12.422-4.916m14.043-14.422l-3.405 5.672 1.46 13.451" stroke="#fff" stroke-miterlimit="10"/><path d="M28.67 43.964l8.32-14.585-11.345-5.887-4.86-10.319M39.69 29.379l2.538 9.455" stroke="#fff" stroke-miterlimit="10"/></svg>
